; G-Code generated by Simplify3D(R) Version 4.1.2
; Jul 13, 2019 at 1:51:51 AM
; Settings Summary
;   processName,Process1
;   applyToModels,four_square_cons
;   profileName,Qidi Technology X-Max (PETG, figurines) (modified)
;   profileVersion,2018-09-17 12:43:44
;   baseProfile,Qidi Technology X-Max (modified)
;   printMaterial,PETG
;   printQuality,High
;   printExtruders,
;   extruderName,Primary Extruder
;   extruderToolheadNumber,0
;   extruderDiameter,0.4
;   extruderAutoWidth,1
;   extruderWidth,0.48
;   extrusionMultiplier,0.94
;   extruderUseRetract,1
;   extruderRetractionDistance,3
;   extruderExtraRestartDistance,0
;   extruderRetractionZLift,0
;   extruderRetractionSpeed,2502
;   extruderUseCoasting,1
;   extruderCoastingDistance,0.4
;   extruderUseWipe,0
;   extruderWipeDistance,5
;   primaryExtruder,0
;   layerHeight,0.08
;   topSolidLayers,4
;   bottomSolidLayers,4
;   perimeterOutlines,3
;   printPerimetersInsideOut,1
;   startPointOption,2
;   startPointOriginX,0
;   startPointOriginY,0
;   sequentialIslands,0
;   spiralVaseMode,0
;   firstLayerHeightPercentage,120
;   firstLayerWidthPercentage,100
;   firstLayerUnderspeed,0.5
;   useRaft,0
;   raftExtruder,0
;   raftTopLayers,3
;   raftBaseLayers,2
;   raftOffset,3
;   raftSeparationDistance,0.14
;   raftTopInfill,100
;   aboveRaftSpeedMultiplier,0.3
;   useSkirt,0
;   skirtExtruder,0
;   skirtLayers,2
;   skirtOutlines,2
;   skirtOffset,4
;   usePrimePillar,0
;   primePillarExtruder,999
;   primePillarWidth,12
;   primePillarLocation,7
;   primePillarSpeedMultiplier,1
;   useOozeShield,0
;   oozeShieldExtruder,999
;   oozeShieldOffset,2
;   oozeShieldOutlines,1
;   oozeShieldSidewallShape,1
;   oozeShieldSidewallAngle,30
;   oozeShieldSpeedMultiplier,1
;   infillExtruder,0
;   internalInfillPattern,Fast Honeycomb
;   externalInfillPattern,Concentric
;   infillPercentage,30
;   outlineOverlapPercentage,20
;   infillExtrusionWidthPercentage,100
;   minInfillLength,5
;   infillLayerInterval,1
;   internalInfillAngles,0
;   overlapInternalInfillAngles,0
;   externalInfillAngles,45,-45
;   generateSupport,1
;   supportExtruder,0
;   supportInfillPercentage,35
;   supportExtraInflation,0
;   supportBaseLayers,0
;   denseSupportExtruder,0
;   denseSupportLayers,2
;   denseSupportInfillPercentage,50
;   supportLayerInterval,1
;   supportHorizontalPartOffset,0.4
;   supportUpperSeparationLayers,3
;   supportLowerSeparationLayers,3
;   supportType,0
;   supportGridSpacing,4
;   maxOverhangAngle,45
;   supportAngles,0
;   temperatureName,Primary Extruder,Heated Bed
;   temperatureNumber,0,0
;   temperatureSetpointCount,1,1
;   temperatureSetpointLayers,1,1
;   temperatureSetpointTemperatures,232,60
;   temperatureStabilizeAtStartup,1,1
;   temperatureHeatedBed,0,1
;   fanLayers,1,2
;   fanSpeeds,0,20
;   blipFanToFullPower,0
;   adjustSpeedForCooling,1
;   minSpeedLayerTime,15
;   minCoolingSpeedSlowdown,20
;   increaseFanForCooling,1
;   minFanLayerTime,45
;   maxCoolingFanSpeed,100
;   increaseFanForBridging,0
;   bridgingFanSpeed,100
;   use5D,1
;   relativeEdistances,0
;   allowEaxisZeroing,1
;   independentExtruderAxes,0
;   includeM10123,0
;   stickySupport,1
;   applyToolheadOffsets,0
;   gcodeXoffset,0
;   gcodeYoffset,0
;   gcodeZoffset,0.06
;   overrideMachineDefinition,1
;   machineTypeOverride,0
;   strokeXoverride,300
;   strokeYoverride,250
;   strokeZoverride,300
;   originOffsetXoverride,0
;   originOffsetYoverride,0
;   originOffsetZoverride,0
;   homeXdirOverride,1
;   homeYdirOverride,1
;   homeZdirOverride,1
;   flipXoverride,1
;   flipYoverride,-1
;   flipZoverride,1
;   toolheadOffsets,0,0|0,0|0,0|0,0|0,0|0,0
;   overrideFirmwareConfiguration,1
;   firmwareTypeOverride,RepRap (Marlin/Repetier/Sprinter)
;   GPXconfigOverride,r2
;   baudRateOverride,115200
;   overridePrinterModels,1
;   printerModelsOverride
;   startingGcode,G28 ; home all axes,G1 X0 Y0 F3600 ; move to wait position,G92 E0 ; zero extruder,G1 Y4 Z0.3 F2400 ; prepare to purge,G1 X160 E18 F2400 ; purge
;   layerChangeGcode,
;   retractionGcode,
;   toolChangeGcode,
;   endingGcode,M107 ; turn fan off,M104 S0 T0 ; cool  extruder,M140 S0 T0 ; cool build plate,G1 Z200 F900 ; lower build plate,G28 X Y ; home XY axes,M84 ; disable motors
;   exportFileFormat,gcode
;   celebration,0
;   celebrationSong,Random Song
;   postProcessing,
;   defaultSpeed,3000
;   outlineUnderspeed,0.5
;   solidInfillUnderspeed,0.8
;   supportUnderspeed,0.8
;   rapidXYspeed,4800
;   rapidZspeed,1002
;   minBridgingArea,50
;   bridgingExtraInflation,0
;   bridgingExtrusionMultiplier,1
;   bridgingSpeedMultiplier,1
;   useFixedBridgingAngle,0
;   fixedBridgingAngle,0
;   applyBridgingToPerimeters,0
;   filamentDiameters,1.75|1.75|1.75|1.75|1.75|1.75
;   filamentPricesPerKg,46|46|46|46|46|46
;   filamentDensities,1.25|1.25|1.25|1.25|1.25|1.25
;   useMinPrintHeight,0
;   minPrintHeight,0
;   useMaxPrintHeight,0
;   maxPrintHeight,0
;   useDiaphragm,0
;   diaphragmLayerInterval,20
;   robustSlicing,1
;   mergeAllIntoSolid,0
;   onlyRetractWhenCrossingOutline,1
;   retractBetweenLayers,1
;   useRetractionMinTravel,1
;   retractionMinTravel,3
;   retractWhileWiping,1
;   onlyWipeOutlines,1
;   avoidCrossingOutline,1
;   maxMovementDetourFactor,3
;   toolChangeRetractionDistance,12
;   toolChangeExtraRestartDistance,-0.5
;   toolChangeRetractionSpeed,600
;   externalThinWallType,0
;   internalThinWallType,2
;   thinWallAllowedOverlapPercentage,10
;   singleExtrusionMinLength,1
;   singleExtrusionMinPrintingWidthPercentage,50
;   singleExtrusionMaxPrintingWidthPercentage,200
;   singleExtrusionEndpointExtension,0.2
;   horizontalSizeCompensation,0
G90
M82
M106 S10
M140 S60
M190 S60
M104 S232 T0
M109 S232 T0
G28 ; home all axes
G1 X0 Y0 F3600 ; move to wait position
G92 E0 ; zero extruder
G1 Y4 Z0.3 F2400 ; prepare to purge
G1 X160 E18 F2400 ; purge
; process Process1
; layer 1, Z = 0.156
T0
G92 E0.0000
G1 E-3.0000 F2502
; feature inner perimeter
; tool H0.096 W0.480
G1 Z0.156 F1002
G1 X141.652 Y116.652 F4800
G1 E0.0000 F2502
G92 E0.0000
G1 X158.800 Y116.652 E0.3088 F1125
G1 X158.800 Y133.800 E0.6176
G1 X141.652 Y133.800 E0.9264
G1 X141.652 Y117.052 E1.2280
G1 X141.652 Y116.652 F1125
G1 X141.172 Y116.172 F4800
G92 E0.0000
G1 X159.280 Y116.172 E0.3261 F1125
G1 X159.280 Y134.280 E0.6522
G1 X141.172 Y134.280 E0.9783
G1 X141.172 Y116.572 E1.2972
G1 X141.172 Y116.172 F1125
; feature outer perimeter
G1 X140.692 Y115.692 F4800
G92 E0.0000
G1 X159.760 Y115.692 E0.3434 F750
G1 X159.760 Y134.760 E0.6868
G1 X140.692 Y134.760 E1.0302
G1 X140.692 Y116.092 E1.3663
G1 X140.692 Y115.692 F750
; feature solid layer
G1 X142.036 Y117.036 F4800
G92 E0.0000
G1 X158.416 Y117.036 E0.2950 F1200
G1 X158.416 Y133.416 E0.5900
G1 X142.036 Y133.416 E0.8849
G1 X142.036 Y117.436 E1.1727
G1 X142.036 Y117.036 F1200
G1 X142.516 Y117.516 F4800
G92 E0.0000
G1 X157.936 Y117.516 E0.2777 F1200
G1 X157.936 Y132.936 E0.5554
G1 X142.516 Y132.936 E0.8331
G1 X142.516 Y117.916 E1.1036
G1 X142.516 Y117.516 F1200
G1 X142.996 Y117.996 F4800
G92 E0.0000
G1 X157.456 Y117.996 E0.2604 F1200
G1 X157.456 Y132.456 E0.5208
G1 X142.996 Y132.456 E0.7812
G1 X142.996 Y118.396 E1.0344
G1 X142.996 Y117.996 F1200
G1 X143.476 Y118.476 F4800
G92 E0.0000
G1 X156.976 Y118.476 E0.2431 F1200
G1 X156.976 Y131.976 E0.4862
G1 X143.476 Y131.976 E0.7293
G1 X143.476 Y118.876 E0.9652
G1 X143.476 Y118.476 F1200
G1 X143.956 Y118.956 F4800
G92 E0.0000
G1 X156.496 Y118.956 E0.2258 F1200
G1 X156.496 Y131.496 E0.4517
G1 X143.956 Y131.496 E0.6775
G1 X143.956 Y119.356 E0.8961
G1 X143.956 Y118.956 F1200
G1 X144.436 Y119.436 F4800
G92 E0.0000
G1 X156.016 Y119.436 E0.2085 F1200
G1 X156.016 Y131.016 E0.4171
G1 X144.436 Y131.016 E0.6256
G1 X144.436 Y119.836 E0.8269
G1 X144.436 Y119.436 F1200
G1 X144.916 Y119.916 F4800
G92 E0.0000
G1 X155.536 Y119.916 E0.1912 F1200
G1 X155.536 Y130.536 E0.3825
G1 X144.916 Y130.536 E0.5737
G1 X144.916 Y120.316 E0.7578
G1 X144.916 Y119.916 F1200
G1 X145.396 Y120.396 F4800
G92 E0.0000
G1 X155.056 Y120.396 E0.1740 F1200
G1 X155.056 Y130.056 E0.3479
G1 X145.396 Y130.056 E0.5219
G1 X145.396 Y120.796 E0.6886
G1 X145.396 Y120.396 F1200
G1 X145.876 Y120.876 F4800
G92 E0.0000
G1 X154.576 Y120.876 E0.1567 F1200
G1 X154.576 Y129.576 E0.3133
G1 X145.876 Y129.576 E0.4700
G1 X145.876 Y121.276 E0.6195
G1 X145.876 Y120.876 F1200
G1 X146.356 Y121.356 F4800
G92 E0.0000
G1 X154.096 Y121.356 E0.1394 F1200
G1 X154.096 Y129.096 E0.2788
G1 X146.356 Y129.096 E0.4182
G1 X146.356 Y121.756 E0.5503
G1 X146.356 Y121.356 F1200
G1 X146.836 Y121.836 F4800
G92 E0.0000
G1 X153.616 Y121.836 E0.1221 F1200
G1 X153.616 Y128.616 E0.2442
G1 X146.836 Y128.616 E0.3663
G1 X146.836 Y122.236 E0.4812
G1 X146.836 Y121.836 F1200
G1 X147.316 Y122.316 F4800
G92 E0.0000
G1 X153.136 Y122.316 E0.1048 F1200
G1 X153.136 Y128.136 E0.2096
G1 X147.316 Y128.136 E0.3144
G1 X147.316 Y122.716 E0.4120
G1 X147.316 Y122.316 F1200
G1 X147.796 Y122.796 F4800
G92 E0.0000
G1 X152.656 Y122.796 E0.0875 F1200
G1 X152.656 Y127.656 E0.1750
G1 X147.796 Y127.656 E0.2626
G1 X147.796 Y123.196 E0.3429
G1 X147.796 Y122.796 F1200
G1 X148.276 Y123.276 F4800
G92 E0.0000
G1 X152.176 Y123.276 E0.0702 F1200
G1 X152.176 Y127.176 E0.1405
G1 X148.276 Y127.176 E0.2107
G1 X148.276 Y123.676 E0.2737
G1 X148.276 Y123.276 F1200
G1 X148.756 Y123.756 F4800
G92 E0.0000
G1 X151.696 Y123.756 E0.0529 F1200
G1 X151.696 Y126.696 E0.1059
G1 X148.756 Y126.696 E0.1588
G1 X148.756 Y124.156 E0.2046
G1 X148.756 Y123.756 F1200
G1 X149.236 Y124.236 F4800
G92 E0.0000
G1 X151.216 Y124.236 E0.0357 F1200
G1 X151.216 Y126.216 E0.0713
G1 X149.236 Y126.216 E0.1070
G1 X149.236 Y124.636 E0.1354
G1 X149.236 Y124.236 F1200
G1 X149.716 Y124.716 F4800
G92 E0.0000
G1 X150.736 Y124.716 E0.0184 F1200
G1 X150.736 Y125.736 E0.0367
G1 X149.716 Y125.736 E0.0551
G1 X149.716 Y125.116 E0.0663
G1 X149.716 Y124.716 F1200
G92 E0.0000
G1 E-3.0000 F2502
; layer 2, Z = 0.236
M106 S156
; feature inner perimeter
; tool H0.080 W0.480
G1 Z0.236 F1002
G1 X141.564 Y116.564 F4800
G1 E0.0000 F2502
G92 E0.0000
G1 X158.800 Y116.564 E0.2587 F2250
G1 X158.800 Y133.800 E0.5173
G1 X141.564 Y133.800 E0.7760
G1 X141.564 Y116.964 E1.0286
G1 X141.564 Y116.564 F2250
G1 X141.084 Y116.084 F4800
G92 E0.0000
G1 X159.280 Y116.084 E0.2731 F2250
G1 X159.280 Y134.280 E0.5461
G1 X141.084 Y134.280 E0.8192
G1 X141.084 Y116.484 E1.0863
G1 X141.084 Y116.084 F2250
; feature outer perimeter
G1 X140.604 Y115.604 F4800
G92 E0.0000
G1 X159.760 Y115.604 E0.2875 F1500
G1 X159.760 Y134.760 E0.5749
G1 X140.604 Y134.760 E0.8624
G1 X140.604 Y116.004 E1.1439
G1 X140.604 Y115.604 F1500
; feature solid layer
G1 X141.948 Y116.948 F4800
G92 E0.0000
G1 X158.416 Y116.948 E0.2471 F2400
G1 X158.416 Y133.416 E0.4943
G1 X141.948 Y133.416 E0.7414
G1 X141.948 Y117.348 E0.9825
G1 X141.948 Y116.948 F2400
G1 X142.428 Y117.428 F4800
G92 E0.0000
G1 X157.936 Y117.428 E0.2327 F2400
G1 X157.936 Y132.936 E0.4655
G1 X142.428 Y132.936 E0.6982
G1 X142.428 Y117.828 E0.9249
G1 X142.428 Y117.428 F2400
G1 X142.908 Y117.908 F4800
G92 E0.0000
G1 X157.456 Y117.908 E0.2183 F2400
G1 X157.456 Y132.456 E0.4366
G1 X142.908 Y132.456 E0.6550
G1 X142.908 Y118.308 E0.8673
G1 X142.908 Y117.908 F2400
G1 X143.388 Y118.388 F4800
G92 E0.0000
G1 X156.976 Y118.388 E0.2039 F2400
G1 X156.976 Y131.976 E0.4078
G1 X143.388 Y131.976 E0.6117
G1 X143.388 Y118.788 E0.8097
G1 X143.388 Y118.388 F2400
G1 X143.868 Y118.868 F4800
G92 E0.0000
G1 X156.496 Y118.868 E0.1895 F2400
G1 X156.496 Y131.496 E0.3790
G1 X143.868 Y131.496 E0.5685
G1 X143.868 Y119.268 E0.7520
G1 X143.868 Y118.868 F2400
G1 X144.348 Y119.348 F4800
G92 E0.0000
G1 X156.016 Y119.348 E0.1751 F2400
G1 X156.016 Y131.016 E0.3502
G1 X144.348 Y131.016 E0.5253
G1 X144.348 Y119.748 E0.6944
G1 X144.348 Y119.348 F2400
G1 X144.828 Y119.828 F4800
G92 E0.0000
G1 X155.536 Y119.828 E0.1607 F2400
G1 X155.536 Y130.536 E0.3214
G1 X144.828 Y130.536 E0.4821
G1 X144.828 Y120.228 E0.6368
G1 X144.828 Y119.828 F2400
G1 X145.308 Y120.308 F4800
G92 E0.0000
G1 X155.056 Y120.308 E0.1463 F2400
G1 X155.056 Y130.056 E0.2926
G1 X145.308 Y130.056 E0.4389
G1 X145.308 Y120.708 E0.5791
G1 X145.308 Y120.308 F2400
G1 X145.788 Y120.788 F4800
G92 E0.0000
G1 X154.576 Y120.788 E0.1319 F2400
G1 X154.576 Y129.576 E0.2638
G1 X145.788 Y129.576 E0.3956
G1 X145.788 Y121.188 E0.5215
G1 X145.788 Y120.788 F2400
G1 X146.268 Y121.268 F4800
G92 E0.0000
G1 X154.096 Y121.268 E0.1175 F2400
G1 X154.096 Y129.096 E0.2349
G1 X146.268 Y129.096 E0.3524
G1 X146.268 Y121.668 E0.4639
G1 X146.268 Y121.268 F2400
G1 X146.748 Y121.748 F4800
G92 E0.0000
G1 X153.616 Y121.748 E0.1031 F2400
G1 X153.616 Y128.616 E0.2061
G1 X146.748 Y128.616 E0.3092
G1 X146.748 Y122.148 E0.4063
G1 X146.748 Y121.748 F2400
G1 X147.228 Y122.228 F4800
G92 E0.0000
G1 X153.136 Y122.228 E0.0887 F2400
G1 X153.136 Y128.136 E0.1773
G1 X147.228 Y128.136 E0.2660
G1 X147.228 Y122.628 E0.3486
G1 X147.228 Y122.228 F2400
G1 X147.708 Y122.708 F4800
G92 E0.0000
G1 X152.656 Y122.708 E0.0743 F2400
G1 X152.656 Y127.656 E0.1485
G1 X147.708 Y127.656 E0.2228
G1 X147.708 Y123.108 E0.2910
G1 X147.708 Y122.708 F2400
G1 X148.188 Y123.188 F4800
G92 E0.0000
G1 X152.176 Y123.188 E0.0598 F2400
G1 X152.176 Y127.176 E0.1197
G1 X148.188 Y127.176 E0.1795
G1 X148.188 Y123.588 E0.2334
G1 X148.188 Y123.188 F2400
G1 X148.668 Y123.668 F4800
G92 E0.0000
G1 X151.696 Y123.668 E0.0454 F2400
G1 X151.696 Y126.696 E0.0909
G1 X148.668 Y126.696 E0.1363
G1 X148.668 Y124.068 E0.1758
G1 X148.668 Y123.668 F2400
G1 X149.148 Y124.148 F4800
G92 E0.0000
G1 X151.216 Y124.148 E0.0310 F2400
G1 X151.216 Y126.216 E0.0621
G1 X149.148 Y126.216 E0.0931
G1 X149.148 Y124.548 E0.1181
G1 X149.148 Y124.148 F2400
G1 X149.628 Y124.628 F4800
G92 E0.0000
G1 X150.736 Y124.628 E0.0166 F2400
G1 X150.736 Y125.736 E0.0333
G1 X149.628 Y125.736 E0.0499
G1 X149.628 Y125.028 E0.0605
G1 X149.628 Y124.628 F2400
G1 X150.108 Y125.108 F4800
G92 E0.0000
G1 X150.256 Y125.108 E0.0022 F2400
G1 X150.256 Y125.152 E0.0029
G1 X150.256 Y125.256 F2400
G1 X150.108 Y125.256
G1 X150.108 Y125.108
G92 E0.0000
G1 E-3.0000 F2502
; layer 3, Z = 0.316
; feature inner perimeter
G1 Z0.316 F1002
G1 X141.484 Y116.484 F4800
G1 E0.0000 F2502
G92 E0.0000
G1 X158.800 Y116.484 E0.2599 F2250
G1 X158.800 Y133.800 E0.5197
G1 X141.484 Y133.800 E0.7796
G1 X141.484 Y116.884 E1.0334
G1 X141.484 Y116.484 F2250
G1 X141.004 Y116.004 F4800
G92 E0.0000
G1 X159.280 Y116.004 E0.2743 F2250
G1 X159.280 Y134.280 E0.5485
G1 X141.004 Y134.280 E0.8228
G1 X141.004 Y116.404 E1.0911
G1 X141.004 Y116.004 F2250
; feature outer perimeter
G1 X140.524 Y115.524 F4800
G92 E0.0000
G1 X159.760 Y115.524 E0.2887 F1500
G1 X159.760 Y134.760 E0.5773
G1 X140.524 Y134.760 E0.8660
G1 X140.524 Y115.924 E1.1487
G1 X140.524 Y115.524 F1500
; feature solid layer
G1 X141.868 Y116.868 F4800
G92 E0.0000
G1 X158.416 Y116.868 E0.2483 F2400
G1 X158.416 Y133.416 E0.4967
G1 X141.868 Y133.416 E0.7450
G1 X141.868 Y117.268 E0.9873
G1 X141.868 Y116.868 F2400
G1 X142.348 Y117.348 F4800
G92 E0.0000
G1 X157.936 Y117.348 E0.2339 F2400
G1 X157.936 Y132.936 E0.4679
G1 X142.348 Y132.936 E0.7018
G1 X142.348 Y117.748 E0.9297
G1 X142.348 Y117.348 F2400
G1 X142.828 Y117.828 F4800
G92 E0.0000
G1 X157.456 Y117.828 E0.2195 F2400
G1 X157.456 Y132.456 E0.4390
G1 X142.828 Y132.456 E0.6586
G1 X142.828 Y118.228 E0.8721
G1 X142.828 Y117.828 F2400
G1 X143.308 Y118.308 F4800
G92 E0.0000
G1 X156.976 Y118.308 E0.2051 F2400
G1 X156.976 Y131.976 E0.4102
G1 X143.308 Y131.976 E0.6153
G1 X143.308 Y118.708 E0.8145
G1 X143.308 Y118.308 F2400
G1 X143.788 Y118.788 F4800
G92 E0.0000
G1 X156.496 Y118.788 E0.1907 F2400
G1 X156.496 Y131.496 E0.3814
G1 X143.788 Y131.496 E0.5721
G1 X143.788 Y119.188 E0.7568
G1 X143.788 Y118.788 F2400
G1 X144.268 Y119.268 F4800
G92 E0.0000
G1 X156.016 Y119.268 E0.1763 F2400
G1 X156.016 Y131.016 E0.3526
G1 X144.268 Y131.016 E0.5289
G1 X144.268 Y119.668 E0.6992
G1 X144.268 Y119.268 F2400
G1 X144.748 Y119.748 F4800
G92 E0.0000
G1 X155.536 Y119.748 E0.1619 F2400
G1 X155.536 Y130.536 E0.3238
G1 X144.748 Y130.536 E0.4857
G1 X144.748 Y120.148 E0.6416
G1 X144.748 Y119.748 F2400
